X:1
T:Title
%%score { ( 1 3 ) | ( 2 4 ) }
L:1/8
M:6/8
K:Db
V:1 treble nm="Grand Piano"
V:3 treble 
V:2 bass 
V:4 bass 
V:1
 z3 z2[Q:1/4=87] D | F_F=F GFD | F3- F2 F | EA[Ac] [=Gc][DGB][DE] | [CEA]3- [CEA]2 A | ABA A2 A | %6
[M:5/8] [CGA][CGB][CGA] [DFA]2 |[M:1/8] [DFA] |[M:3/4] [DAd][DAc] [D_FB][D=FA]/[DF]/- [DF][F,D] | %9
[M:13/16] .D3/2[K:bass] z/ z/ z/ z/ z/ z/ z/ z/ z |] %10
V:2
 z3 z2 [D,F,] | [D,A,D][D,=G,D][D,A,D] [D,B,D][D,A,D][D,F,] | [D,A,D]3- [D,A,D]2 [=D,A,_C] | %3
 [E,A,C][E,CE][E,E] [E,E]E,E, | A,,3- A,,2 [A,CE] | [G,A,C][G,A,C][G,A,C] [F,A,D]2 [F,A,D] | %6
[M:5/8] E,E,E, D,2 |[M:1/8] D, |[M:3/4] F,G, =G,A,/A,/- A,B,, | %9
[M:13/16] z/ A,<A,,A,,D,/-D,/-D,-<D, |] %10
V:3
 x6 | x6 | x6 | x6 | x6 | x6 |[M:5/8] x5 |[M:1/8] x |[M:3/4] x6 | %9
[M:13/16] [B,G]/F<[K:bass][G,CE][A,CF][F,D]/-[F,D]/-[F,D]-<[F,D] |] %10
V:4
 x6 | x6 | x6 | x6 | x6 | x6 |[M:5/8] x5 |[M:1/8] x |[M:3/4] x6 | %9
[M:13/16] .A,,3/2 z/ z/ z/ z/ z/ z/ z/ z/ z |] %10

